X: 19179
T: Is The Big Man Within?
R: slip jig
M: 9/8
K: Dmajor
K:D
|:E|FEF G2 E E2 G|FEF A2 D D2 E|FEF G2 E E2 c|dcB A2 D D2:|
M: 6/8
|:G|F2 A ABc|d>ed c>BA|B>cB AGF|B2 E E2 G|
F2 A ABc|d>ed c>BA|B>cB AGF|A2 D D2:|

